src/lib/images/logo/hydro-drop-noframe.svg

<svg fill="none" height="691" width="512" xmlns="http://www.w3.org/2000/svg" xmlns:xlink="http://www.w3.org/1999/xlink"><linearGradient id="a" gradientUnits="userSpaceOnUse" x1="256" x2="256" y2="690.08"><stop offset="0" stop-color="#614cb5"/><stop offset="1" stop-color="#3f70ee"/></linearGradient><linearGradient id="b" gradientUnits="userSpaceOnUse" x1="256" x2="256" y1="343.17" y2="688.17"><stop offset="0" stop-color="#8fafff"/><stop offset="1" stop-color="#3d7ddd"/></linearGradient><path d="m256 690.08c141.38 0 256-120.15 256-268.36 0-82.9-60.063-195.197-180.19-336.89-15.367-18.127-40.637-46.403-75.81-84.83-37.06 40.54-63.62 70.343-79.68 89.41-117.547 139.533-176.32 250.303-176.32 332.31 0 148.21 114.62 268.36 256 268.36z" fill="url(#a)"/><path d="m256 688.73c106.035 0 192-90.113 192-201.27 0-62.175-45.048-146.398-135.143-252.668-11.524-13.595-30.477-34.802-56.857-63.622-27.795 30.405-47.715 52.757-59.76 67.057-88.16 104.65-132.24 187.728-132.24 249.233 0 111.157 85.965 201.27 192 201.27z" fill="#244a93" fill-opacity=".5"/><path d="m256 688.21c70.69 0 128-60.075 128-134.18 0-41.45-30.032-97.598-90.095-168.445-7.683-9.063-20.318-23.202-37.905-42.415-18.53 20.27-31.81 35.172-39.84 44.705-58.773 69.767-88.16 125.152-88.16 166.155 0 74.105 57.31 134.18 128 134.18z" fill="url(#b)" fill-opacity=".75"/></svg>

<svg width="512" height="691" viewBox="0 0 512 691" fill="none" xmlns="http://www.w3.org/2000/svg">
<path d="M256 690.08C397.38 690.08 512 569.93 512 421.72C512 338.82 451.937 226.523 331.81 84.83C316.443 66.7033 291.173 38.4267 256 0C218.94 40.54 192.38 70.3433 176.32 89.41C58.7733 228.943 0 339.713 0 421.72C0 569.93 114.62 690.08 256 690.08Z" fill="url(#paint0_linear_1610_243)"/>
<path d="M256 688.73C362.035 688.73 448 598.617 448 487.46C448 425.285 402.952 341.062 312.857 234.792C301.333 221.197 282.38 199.99 256 171.17C228.205 201.575 208.285 223.927 196.24 238.227C108.08 342.877 64 425.955 64 487.46C64 598.617 149.965 688.73 256 688.73Z" fill="#244A93" fill-opacity="0.5"/>
<path d="M256 688.21C326.69 688.21 384 628.135 384 554.03C384 512.58 353.968 456.432 293.905 385.585C286.222 376.522 273.587 362.383 256 343.17C237.47 363.44 224.19 378.342 216.16 387.875C157.387 457.642 128 513.027 128 554.03C128 628.135 185.31 688.21 256 688.21Z" fill="url(#paint1_linear_1610_243)" fill-opacity="0.75"/>
<defs>
<linearGradient id="paint0_linear_1610_243" x1="256" y1="0" x2="256" y2="690.08" gradientUnits="userSpaceOnUse">
<stop stop-color="#614CB5"/>
<stop offset="1" stop-color="#3F70EE"/>
</linearGradient>
<linearGradient id="paint1_linear_1610_243" x1="256" y1="343.17" x2="256" y2="688.17" gradientUnits="userSpaceOnUse">
<stop stop-color="#8FAFFF"/>
<stop offset="1" stop-color="#3D7DDD"/>
</linearGradient>
</defs>
</svg>
